X: 471
T: Mai cai
L: 1/8
M: 5/4
K: G
e e e e f e/ B/d4 [I:setbarnb 1]| 
e/ g/ e/ d/ B B d BA4 | 
[M:4/4]A> G A B d B d d | 
F ED2d2B d | 
A G F ED4 | 
A/ G/ A/ G/ A/ G/ A/ B/ d/ B/ d/ B/d2 | 
F> ED2d2B d | 
AG2ED4 |]

@@@ Tune index: 9345
